X:14
T:Gospel Verse, Easter IV
M:6/8
L:1/8
K:F min
V:1 clef=treble
[V:1] F | FAB (cB)A | (BA)G F3 | FFG (FE)F | (AG)F C3 | GAG F3 ||
w: I | am the good shep - herd, | says - the Lord. | I know my sheep - and | mine - know me. | Al-le-lu-ia.||

